X: 642
T: The Grant's Rant
R: reel
B: Robert Bremner "A Collection of Scots Reels or Country Dances" 1757 p.64 #2
S: http://imslp.org/wiki/A_Collection_of_Scots_Reels_or_Country_Dances_(Bremner,_Robert)
Z: 2013 John Chambers <jc:trillian.mit.edu>
N: This is a version of Green Grow the Rashes O.
M: C|
L: 1/8
K: G
% - - - - - - - - - - - - - - - - - - - - - - - - -
V: 1
A |\
G/G/G B>A BGGB | A/A/A ed eAAB |\
c2ce d/c/B/A/ GB | cABG TA>GE :|
|: A |\
G/G/G g>e gddg | e/e/e a>g aeef |\
gage d/c/B/A/ GB | c>AB>G TAGE :|
% - - - - - - - - - - - - - - - - - - - - - - - - -
V: 2 clef=bass middle=d
z |\
g2g2 g2g2 | a2a2 a2a2 |\
c'2c'2 b2b2 | a2g2 e2e :|\
|: z |\
g2g2 g2g2 | a2a2 a2a2 |\
g2g2 g2g2 | a2g2 e2e :|
% - - - - - - - - - - - - - - - - - - - - - - - - -

%%sep 1 1 500
%%sep 1 1 500
